X: 65
T:Sandy River Belles
M:4/4
L:1/4
Q:300
K:D
E|"D"A,/2B,/2D/2E/2 F2|ED BA|"D"A,/2B,/2D/2E/2 F2|"Em"ED "A7"B,A,|
"D"A,/2B,/2D/2E/2 F2|"D"ED "A7"BA|"D"Ad/2B/2 "G"Ad/2B/2|"A7"A/2F/2E "D"D
